X:579
T:Maclean's Favorite
N:anon.
O:Ireland
B:Francis O'Neill: "The Dance Music of Ireland" (1907) no. 579
R:Reel
Z:Transcribed by Frank Nordberg - http://www.musicaviva.com
N:Music Aviva - The Internet center for free sheet music downloads
%Title given as "McLean's favorite" in the index.
M:C|
L:1/8
K:Em
(gf)|:edBA GABc|dGBG dGBe|edBA GABA|[1Beed efgdf|
edef edBe|defg afdf|edef d2d2|defg afdf|fdef edBf|g2ge f2fd|efed efgf "_D
.C." |]
